static/images/pieces/xiangqi/wikim/red_horse.svg

<?xml version="1.0" encoding="UTF-8" standalone="no"?>
<svg
   width="100"
   height="100"
   version="1.1"
   id="svg1451"
   sodipodi:docname="red_horse.svg"
   viewBox="-6 -6 112 112"
   inkscape:version="1.2.2 (b0a8486541, 2022-12-01)"
   xmlns:inkscape="http://www.inkscape.org/namespaces/inkscape"
   xmlns:sodipodi="http://sodipodi.sourceforge.net/DTD/sodipodi-0.dtd"
   xmlns="http://www.w3.org/2000/svg"
   xmlns:svg="http://www.w3.org/2000/svg"
   xmlns:rdf="http://www.w3.org/1999/02/22-rdf-syntax-ns#"
   xmlns:cc="http://creativecommons.org/ns#"
   xmlns:dc="http://purl.org/dc/elements/1.1/">
  <defs
     id="defs1455" />
  <sodipodi:namedview
     id="namedview1453"
     pagecolor="#ffffff"
     bordercolor="#666666"
     borderopacity="1.0"
     inkscape:showpageshadow="2"
     inkscape:pageopacity="0.0"
     inkscape:pagecheckerboard="0"
     inkscape:deskcolor="#d1d1d1"
     showgrid="false"
     inkscape:zoom="2.36"
     inkscape:cx="50.211864"
     inkscape:cy="50"
     inkscape:window-width="1920"
     inkscape:window-height="1022"
     inkscape:window-x="0"
     inkscape:window-y="0"
     inkscape:window-maximized="1"
     inkscape:current-layer="svg1451" />
  <title
     id="title1443">傌</title>
  <!-- 此字型為全字庫正楷體，中華民國國家發展委員會，CNS11643中文標準交換碼全字庫網站，https://www.cns11643.gov.tw/。 -->
  <circle
     r="48.5"
     cx="50"
     cy="50"
     stroke-width="3"
     stroke="#000000"
     fill="#ffddaa"
     id="circle1445" />
  <circle
     r="43.5"
     cx="50"
     cy="50"
     stroke-width="3"
     stroke="#cc0000"
     fill="none"
     id="circle1447" />
  <path
     transform="translate(15,14)"
     fill="#cc0000"
     d="m 22.6,8.9 c -0.3,0.4 -0.6,1.2 -0.6,2.2 0,2.3 -0.7,4.7 -2.2,7.7 -3,6 -7.4,12.1 -12,16.9 -3.1,3.2 -3.5,4.3 -1.8,4.5 1.2,0.1 4.7,-2.3 8.4,-5.9 1.7,-1.6 3.2,-2.9 3.3,-2.8 0.6,0.6 -0.5,15.6 -1.5,20.3 -0.9,3.9 -0.8,5.8 0.4,8.2 1,2 1.2,2.1 2.3,2.1 1.1,0 1.3,-0.1 2,-1.6 0.8,-1.6 0.9,-2.2 1.2,-12.6 0.1,-6 0.5,-12.6 0.7,-14.6 l 0.4,-3.7 -1.3,-1.2 -1.3,-1.1 1.6,-2.4 c 0.8,-1.3 2.4,-4 3.5,-6 1.1,-2 2.4,-4.1 3,-4.7 0.6,-0.6 1,-1.4 1,-1.7 0,-0.8 -1.9,-2.9 -3.1,-3.6 -1.3,-0.7 -3.3,-0.6 -4,0 M 49,10.5 c -6.2,1.3 -12.1,1.7 -14.6,1.1 -3.1,-0.8 -3.8,-0.1 -2.7,2.6 0.5,1.2 0.6,2.5 0.4,9.1 -0.2,8 -0.6,11.3 -1.5,13.6 -0.6,1.3 -0.6,1.3 0.3,3.2 1.1,2.2 1.7,2.5 3.2,1.9 4,-1.6 7,-2.2 15.8,-3 7.4,-0.6 7.3,-0.6 8,0.1 0.6,0.5 0.6,1 0.4,3.5 -0.6,7.6 -1.9,12.7 -3.7,14.3 -1.4,1.1 -2,1.1 -4.2,0 -1.9,-1 -3.3,-1.2 -3.6,-0.4 -0.1,0.2 0.7,1.8 1.7,3.4 1,1.6 1.9,3.1 1.9,3.3 0,0.3 0.4,0.9 0.9,1.5 1.2,1.4 2.6,1.4 4.9,0 2,-1.2 3.3,-2.7 4.4,-4.6 1.1,-2.1 2.3,-7.5 3.1,-13.2 0.4,-3.7 0.8,-5.4 1.4,-6.3 1.5,-2.5 0.8,-3.5 -3.6,-5.8 l -1.9,-1 -3.8,0.6 c -2.1,0.3 -4.6,0.6 -5.6,0.7 l -1.7,0.1 -0.1,-1.7 c -0.1,-1 0,-1.9 0.1,-2 0.2,-0.2 1.8,-0.5 3.6,-0.7 4.4,-0.5 5.8,-1 5.9,-2 0.3,-1.5 -3.9,-2.5 -7.9,-1.8 l -1.5,0.3 0.1,-2.2 0.1,-2.2 4,-0.5 c 4.6,-0.7 5.7,-1.1 5.6,-2.2 -0.2,-1.1 -3.1,-2.1 -5.1,-1.9 -0.8,0.2 -2.2,0.4 -3.1,0.5 l -1.6,0.2 0.2,-1 c 0.5,-3.1 0.7,-3.5 1.6,-3.6 2.8,-0.3 8.3,-1.2 8.8,-1.5 0.4,-0.2 0.6,-0.7 0.6,-1.2 0,-0.7 -0.3,-1 -1.4,-1.6 -2,-0.8 -3.2,-0.8 -9.4,0.4 m -6,5.3 c 0.2,0.3 0.4,1.2 0.4,2.2 v 1.8 l -2.2,0.4 c -1.3,0.3 -2.7,0.4 -3.2,0.4 -1,0 -1,0 -0.7,-1.6 0.4,-3 0.5,-3.2 1.7,-3.3 2.3,-0.3 3.6,-0.3 4,0.1 m 0.4,10.1 c 0,2.3 0.1,2.2 -3.7,2.6 -3.1,0.4 -3.2,0.3 -3,-2.1 l 0.2,-2.1 2.3,-0.2 c 4.7,-0.4 4.2,-0.6 4.2,1.8 m 0,7 c 0,0.5 -0.1,1.4 -0.2,2 -0.2,1.1 -0.3,1.1 -3.5,1.7 -1.8,0.3 -3.4,0.5 -3.5,0.5 0,-0.1 0,-1.2 0.1,-2.6 0.1,-1.5 0.3,-2.3 0.6,-2.2 0.2,0.1 1.4,0 2.6,-0.1 4,-0.4 3.9,-0.5 3.9,0.7 m 3.5,8.9 c -0.3,0.4 0,1.3 1.5,4.3 2.1,4.3 3.2,5.4 4.6,4.7 1.2,-0.5 2.1,-2.6 1.8,-4.2 -0.2,-1.6 -2,-3.4 -4.2,-4.5 -2,-0.9 -3.1,-1 -3.7,-0.3 m -18.8,2 c -0.2,0.3 -0.6,1.3 -0.9,2.4 -0.4,1.1 -1.2,2.9 -1.9,4.1 -1.4,2.6 -1.5,4.4 -0.4,6.1 1.2,1.7 2.4,1.7 3.9,0 1.5,-1.8 2,-3.3 2.2,-7.1 0.3,-3.7 -0.3,-5.7 -1.6,-5.8 -0.5,-0.1 -1.1,0.1 -1.3,0.3 m 11.3,-0.2 c -0.4,0.5 -0.2,1.5 1.5,4.9 2.4,4.9 3.9,5.8 5.6,3.3 1.5,-2.2 0.7,-4.8 -2,-6.7 -1.9,-1.4 -4.4,-2.1 -5.1,-1.5 m -6.7,1.8 c -0.3,0.8 1.6,6.7 2.5,8.1 1.8,2.4 4.3,0.9 4.3,-2.5 0,-1.5 -0.1,-2.1 -1,-3.2 -2.1,-2.5 -5.3,-3.8 -5.8,-2.4"
     id="path1449" />
  <metadata
     id="metadata11138">
    <rdf:RDF>
      <cc:Work
         rdf:about="">
        <dc:title>傌</dc:title>
      </cc:Work>
    </rdf:RDF>
  </metadata>
</svg>

<?xml version="1.0" encoding="UTF-8"?>
<svg width="100" height="100"
	xmlns="http://www.w3.org/2000/svg">
	<title>傌</title>
	<!-- 此字型為全字庫正楷體，中華民國國家發展委員會，CNS11643中文標準交換碼全字庫網站，https://www.cns11643.gov.tw/。 -->
	<circle r="48.5" cx="50" cy="50" stroke-width="3" stroke="#000" fill="#fda"/>
	<circle r="43.5" cx="50" cy="50" stroke-width="3" stroke="#c00" fill="none"/>
	<path transform="translate(15,14)" fill="#c00" d="M22.6 8.9 C22.3 9.3,22.0 10.1,22.0 11.1 C22.0 13.4,21.3 15.8,19.8 18.8 C16.8 24.8,12.4 30.9,7.8 35.7 C4.7 38.9,4.3 40.0,6.0 40.2 C7.2 40.3,10.7 37.9,14.4 34.3 C16.1 32.7,17.6 31.4,17.7 31.5 C18.3 32.1,17.2 47.1,16.2 51.8 C15.3 55.7,15.4 57.6,16.6 60.0 C17.6 62.0,17.8 62.1,18.9 62.1 C20.0 62.1,20.2 62.0,20.9 60.5 C21.7 58.9,21.8 58.3,22.1 47.9 C22.2 41.9,22.6 35.3,22.8 33.3 L23.2 29.6 21.9 28.4 L20.6 27.3 22.2 24.9 C23.0 23.6,24.6 20.9,25.7 18.9 C26.8 16.9,28.1 14.8,28.7 14.2 C29.3 13.6,29.7 12.8,29.7 12.5 C29.7 11.7,27.8 9.6,26.6 8.9 C25.3 8.2,23.3 8.3,22.6 8.9 M49.0 10.5 C42.8 11.8,36.9 12.2,34.4 11.6 C31.3 10.8,30.6 11.5,31.7 14.2 C32.2 15.4,32.3 16.7,32.1 23.3 C31.9 31.3,31.5 34.6,30.6 36.9 C30.0 38.2,30.0 38.2,30.9 40.1 C32.0 42.3,32.6 42.6,34.1 42.0 C38.1 40.4,41.1 39.8,49.9 39.0 C57.3 38.4,57.2 38.4,57.9 39.1 C58.5 39.6,58.5 40.1,58.3 42.6 C57.7 50.2,56.4 55.3,54.6 56.9 C53.2 58.0,52.6 58.0,50.4 56.9 C48.5 55.9,47.1 55.7,46.8 56.5 C46.7 56.7,47.5 58.3,48.5 59.9 C49.5 61.5,50.4 63.0,50.4 63.2 C50.4 63.5,50.8 64.1,51.3 64.7 C52.5 66.1,53.9 66.1,56.2 64.7 C58.2 63.5,59.5 62.0,60.6 60.1 C61.7 58.0,62.9 52.6,63.7 46.9 C64.1 43.2,64.5 41.5,65.1 40.6 C66.6 38.1,65.9 37.1,61.5 34.8 L59.6 33.8 55.8 34.4 C53.7 34.7,51.2 35.0,50.2 35.1 L48.5 35.2 48.4 33.5 C48.3 32.5,48.4 31.6,48.5 31.5 C48.7 31.3,50.3 31.0,52.1 30.8 C56.5 30.3,57.9 29.8,58.0 28.8 C58.3 27.3,54.1 26.3,50.1 27.0 L48.6 27.3 48.7 25.1 L48.8 22.9 52.8 22.4 C57.4 21.7,58.5 21.3,58.4 20.2 C58.2 19.1,55.3 18.1,53.3 18.3 C52.5 18.5,51.1 18.7,50.2 18.8 L48.6 19.0 48.8 18.0 C49.3 14.9,49.5 14.5,50.4 14.4 C53.2 14.1,58.7 13.2,59.2 12.9 C59.6 12.7,59.8 12.2,59.8 11.7 C59.8 11.0,59.5 10.7,58.4 10.1 C56.4 9.3,55.2 9.3,49.0 10.5 M43.0 15.8 C43.2 16.1,43.4 17.0,43.4 18.0 L43.4 19.8 41.2 20.2 C39.9 20.5,38.5 20.6,38.0 20.6 C37.0 20.6,37.0 20.6,37.3 19.0 C37.7 16.0,37.8 15.8,39.0 15.7 C41.3 15.4,42.6 15.4,43.0 15.8 M43.4 25.9 C43.4 28.2,43.5 28.1,39.7 28.5 C36.6 28.9,36.5 28.8,36.7 26.4 L36.9 24.3 39.2 24.1 C43.9 23.7,43.4 23.5,43.4 25.9 M43.4 32.9 C43.4 33.4,43.3 34.3,43.2 34.9 C43.0 36.0,42.9 36.0,39.7 36.6 C37.9 36.9,36.3 37.1,36.2 37.1 C36.2 37.0,36.2 35.9,36.3 34.5 C36.4 33.0,36.6 32.2,36.9 32.3 C37.1 32.4,38.3 32.3,39.5 32.2 C43.5 31.8,43.4 31.7,43.4 32.9 M46.9 41.8 C46.6 42.2,46.9 43.1,48.4 46.1 C50.5 50.4,51.6 51.5,53.0 50.8 C54.2 50.3,55.1 48.2,54.8 46.6 C54.6 45.0,52.8 43.2,50.6 42.1 C48.6 41.2,47.5 41.1,46.9 41.8 M28.1 43.8 C27.9 44.1,27.5 45.1,27.2 46.2 C26.8 47.3,26.0 49.1,25.3 50.3 C23.9 52.9,23.8 54.7,24.9 56.4 C26.1 58.1,27.3 58.1,28.8 56.4 C30.3 54.6,30.8 53.1,31.0 49.3 C31.3 45.6,30.7 43.6,29.4 43.5 C28.9 43.4,28.3 43.6,28.1 43.8 M39.4 43.6 C39.0 44.1,39.2 45.1,40.9 48.5 C43.3 53.4,44.8 54.3,46.5 51.8 C48.0 49.6,47.2 47.0,44.5 45.1 C42.6 43.7,40.1 43.0,39.4 43.6 M32.7 45.4 C32.4 46.2,34.3 52.1,35.2 53.5 C37.0 55.9,39.5 54.4,39.5 51.0 C39.5 49.5,39.4 48.9,38.5 47.8 C36.4 45.3,33.2 44.0,32.7 45.4 "/>
</svg>
